.local/share/icons/Gruvbox-Plus-Dark/panel/22/audio-recorder-paused.svg

<svg xmlns="http://www.w3.org/2000/svg" width="22" height="22" version="1.1">
 <defs>
  <style id="current-color-scheme" type="text/css">
   .ColorScheme-Text { color:#ebdbb2; } .ColorScheme-Highlight { color:#458588; }
  </style>
 </defs>
 <path style="fill:currentColor" class="ColorScheme-Text" d="m 6.0000025,10 a 1,1 0 0 0 -1,1 1,1 0 0 0 0.00586,0.111328 c 0.063706,2.435063 2.1932095,4.425359 4.9941405,4.814453 V 17 H 7.0000025 a 1,1 0 0 0 -1,1 1,1 0 0 0 1,1 h 8.0000005 a 1,1 0 0 0 0.999999,-1 1,1 0 0 0 -0.999999,-1 h -3 v -1.074219 c 2.804683,-0.389615 4.935899,-2.386668 4.99414,-4.826172 A 1,1 0 0 0 17.000002,11 a 1,1 0 0 0 -1,-1 1,1 0 0 0 -0.999999,1 h -0.01563 c -0.08353,2.067786 -1.410965,3 -3.984369,3 -2.5735987,0 -3.9008539,-0.932214 -3.9843755,-3 h -0.015625 a 1,1 0 0 0 -1,-1 z"/>
 <path style="fill:currentColor;opacity:0.3" class="ColorScheme-Text" d="M 11 3 C 8.784 3 7 4.8594509 7 7.1679688 L 7 8.8320312 C 7 11.140549 8.784 13 11 13 C 13.216 13 15 11.140549 15 8.8320312 L 15 7.1679688 C 15 4.8594509 13.216 3 11 3 z M 9 6 L 10 6 L 10 10 L 9 10 L 9 6 z M 12 6 L 13 6 L 13 10 L 12 10 L 12 6 z"/>
</svg>

<svg width="22" height="22" version="1.1" xmlns="http://www.w3.org/2000/svg">
  <defs>
    <style id="current-color-scheme" type="text/css">.ColorScheme-Text { color:#ebdbb2; } .ColorScheme-Highlight { color:#458588; } .ColorScheme-NeutralText { color:#fe8019; } .ColorScheme-PositiveText { color:#689d6a; } .ColorScheme-NegativeText { color:#fb4934; }</style>
  </defs>
  <path class="ColorScheme-Text" d="m6 10a1 1 0 0 0-1 1 1 1 0 0 0 0.00586 0.1113c0.06371 2.435 2.193 4.425 4.994 4.814v1.074h-3a1 1 0 0 0-1 1 1 1 0 0 0 1 1h8a1 1 0 0 0 1-1 1 1 0 0 0-1-1h-3v-1.074c2.805-0.3896 4.936-2.387 4.994-4.826a1 1 0 0 0 0.005859-0.09961 1 1 0 0 0-1-1 1 1 0 0 0-1 1h-0.01563c-0.08353 2.068-1.411 3-3.984 3-2.574 0-3.901-0.9322-3.984-3h-0.01562a1 1 0 0 0-1-1z" fill="currentColor"/>
  <path class="ColorScheme-Text" d="m11 3c-2.216 0-4 1.859-4 4.168v1.664c0 2.309 1.784 4.168 4 4.168s4-1.859 4-4.168v-1.664c0-2.309-1.784-4.168-4-4.168zm-2 3h1v4h-1v-4zm3 0h1v4h-1v-4z" fill="currentColor" opacity=".3"/>
</svg>
